svgs/sharp-regular/car-building.svg

<svg xmlns="http://www.w3.org/2000/svg" viewBox="0 0 640 512"><!--! Font Awesome Pro 6.6.0 by @fontawesome - https://fontawesome.com License - https://fontawesome.com/license (Commercial License) Copyright 2024 Fonticons, Inc. --><path d="M48 48l256 0 0 80 48 0 0-80 0-48L304 0 48 0 0 0 0 48 0 432l0 48 48 0 144 0 0-48L48 432 48 48zM256 192l-64 0 0 47.7 56.7 .4 1.8 0 5.5-15.9 0-32.2zM160 96L96 96l0 64 64 0 0-64zm32 0l0 64 64 0 0-64-64 0zm-32 96l-64 0 0 64 64 0 0-64zm0 96l-64 0 0 64 64 0 0-64zM311.1 160l-5.7 15.9L271.1 272 224 272l0 48 0 80 0 16 0 32 0 64 48 0 0-64 320 0 0 64 48 0 0-64 0-32 0-16 0-80 0-48-47.1 0-34.3-96.1L552.9 160 536 160l-208 0-16.9 0zM576.6 320l15.4 0 0 80-320 0 0-80 15.4 0c.4 0 .7 0 1.1 0l286.9 0c.4 0 .7 0 1.1 0zM519.1 208l22.9 64-219.9 0 22.9-64 174.2 0zM336 384a24 24 0 1 0 0-48 24 24 0 1 0 0 48zm216-24a24 24 0 1 0 -48 0 24 24 0 1 0 48 0z"/></svg>

<svg xmlns="http://www.w3.org/2000/svg" viewBox="0 0 640 512"><!--! Font Awesome Pro 6.4.0 by @fontawesome - https://fontawesome.com License - https://fontawesome.com/license (Commercial License) Copyright 2023 Fonticons, Inc. --><path d="M48 48H304v80l48 0V48 0H304 48 0V48 432v48H48 192l0-48H48V48zM256 192H192v47.7l56.7 .4 1.8 0 5.5-15.9V192zM160 96H96v64h64V96zm32 0v64h64V96H192zm-32 96H96v64h64V192zm0 96H96v64h64V288zM311.1 160l-5.7 15.9L271.1 272H224v48 80 16 32 64h48V448H592v64h48V448 416 400 320 272H592.9l-34.3-96.1L552.9 160H536 328 311.1zM576.6 320H592v80H272V320h15.4c.4 0 .7 0 1.1 0H575.4c.4 0 .7 0 1.1 0zM519.1 208l22.9 64H322.1l22.9-64H519.1zM336 384a24 24 0 1 0 0-48 24 24 0 1 0 0 48zm216-24a24 24 0 1 0 -48 0 24 24 0 1 0 48 0z"/></svg>
